X:19
T:All of me
C:Django Reinhardt
N:Arranged for mandolin by Mike Stangeland, mando chords added by Risto
L:1/8
Q:1/4=192
M:4/4
K:C
z8 | "Cmaj7"c3G E4 | z4 (3c2d2 c2 | "E7"B3^G E4 | z8 | "A7"A3G E4 | z2 ^C2 (3E2_B2 A2 | 
"Dm7"G4 F4 | z8 | "E7"E3^D =D4 | z4 (3E2^G2 B2 | "Am7"d4 c4 | z8 | "D7"B3_B A4 | 
z4 (3A2d2 B2 | "Dm7"A8 | "G7"B8 | "Cmaj7"c3G E4 | z4 (3c2d2 c2 | "E7"B3^G E4 | 
z8 | "A7"A3G E4 | E2 ^D2 (3E2_B2 A2 | "Dm7"G4 F4 | z8 | "Fmaj7"f4 c2 B2 | "Fm7"f6 c2 | 
"Cmaj7"B4 E2 G2 | "A7"B6 A2 | "Dm7"c4 ^G2 c2 | "G7"e4 e4 | "Cmaj7"c8 | z"Dm7"E FG e"G7"B dc | 
"Cmaj7"EG BA G"Django Solo"E C2 | A,3A,3 (3A,B,A, | "E7"^G,B, DE F^G Bd | f3e2d3 | 
(3"A7"ded ^c2 E_B3 | _B3A z2 ^CG | "Dm7"z2 FD z2 ED | z2 FB, z2 A,^G, | "E7"zB, DE F^G Bd | 
f2 Bd z2 (3cdc | "Am7"A^G EC B,A, B,C | EB2E A4 | "D7"z2 (3E^FA ce3 | B2 (3zcB AE3 | 
"Dm7"D4 zD FA | "G7"c2 ^D^F AB cd | "Cmaj7"e7/1B | d^c =cB A^G BF | "E7"z4 B,D F^G | 
d^c =cB _BA ^GB | "A7"A^C E^G (3_BcB A=G | FE G2 A,4 | "Dm7"C^C EG _B^c ed | zf z3e gf | 
"Fmaj7"a2 eg2f (3dc_B | (3"Fm7"^GFF (3FFF (3FFF (3FFF | "Cmaj7"FE E2 (3zEG (3ceg | 
"A7"^c4 _ba2a | "Dm7"z6 eg | "G7"f^G Ac e2 =GB | "Cmaj7"z4 "A7/5+"A2 z2 | "Dm7"A^G =G2 "G7"F^D C2 | 
"Cmaj7"cB c"Melody based bre"G ED CE | EG A(3B2 (3c2d2 c2 | "E7"(3B2A2 ^G2 (3E2D2 B,2 | 
(3EEE (3EEE (3EEE (3EEE | "A7"(3A2G2 ^F2 (3EEE (3EEE | (3EEE (3^CCC (3E2_B2 A2 | 
"Dm7"(3G2^F2 G2 (3=F2E2 F2 | (3D2F2 D2 (3C2D2 C2 | "E7"EG A^D (3=D^D=D B,E | (3D2G2 A2 {^D}(3E2^G2 B2 | 
"Am7"{^c}(3d2e2 g2 {^g}(3a2g2 =g2 | {d}(3^d2=d2 c2 (3ccc (3ccc | "D7"(3BBB B_B A2 A,C | 
(3DE^F (3ABc (3ed^c (3BAG | "Dm7"(3D2A,2 D2 (3A2d2 f2 | "G7"(3BBB (3BBB (3BBB (3BBB | 
"Cmaj7"(3c2B2 G2 E2 CD | EF B(3e2 (3c2d2 c2 | "E7"B2 B,D EF ^GB | de E^G Bd cB | 
"A7"AA, ^CD E2 (3E^D=D | E2 ^D2 (3E2_B2 A2 | "Dm7"GF DE (3FFF (3FFF | (3FFF (3GGG (3AAA (3ddd | 
"Fmaj7"f4 c2 B2 | "Fm7"f6 c2 | "Cmaj7"B4 E2 G2 | "A7"B6 A2 | "Dm7"c4 ^G2 c2 | 
"G7"e4 e4 | "Cmaj7"c8 | z"Dm7"E FG e"G7"B dB | c8 | 


